X:38
T:Grub Spring
M:C
L:1/8
C: Traditional
R:Reel
K:A
"A"[A,2E2] |: AB c2 cB cB| AF E2 [A,2E2][A,2E2] |AB cBAB | cBAF E2 [A,2E2]|
"A"[A,2E2] AB c2 cB | cBAF E2 A2 | c4 A4 | "D"FE F2 "A"E4 :|!
|:"A"e4 e4 | "D"f2 fa fe c2 | "A"e4 e4 | "D"fefg a4 |!
"A"[c3e3] [de] [c2e2] [d2f2]-|"D"[d2f2] fa fe c2 | "A"e4 "E"[B4e4] :| 


